!!!SOCIAL_FUNCTION:	social songs
!!!PDT:	1943
!!!OTL: No_58_Social_Song_(d).krn
!!!REG: British Columbia
**kern
*staff1
=1-
*clefF4
*k[f#c#]
*M3/4
4A\
8.B\L
16c#\Jk
8B\L
8A\J
=2||
*M2/4
4c#\
12B\L
12c#\
[12B\J
=3||
*M3/4
4..B\]
16A\
4B\
=4||
*M2/4
4.A\
8r
=5||
*M3/4
4B\
4c#\
8B\L
8A\J
=6||
*M2/4
4B\
12A\L
12B\
[12A\J
=7
4.A\]
16F#\
16r
=8||
*M3/4
4A\
16F#\LK
[8.E\J
8E\]
8r
=9
4F#\
4E\
16C#/LK
8.BB/J
=10||
*M2/4
4F#\
4E\
=11||
*M3/4
2D\
8D/L
8BB/J
=12||
*M2/4
4.AA/
8r
=13||
*M3/4
4AA/
4BB/
4AA/
=14||
*M2/4
4D\
4BB/
=15
2AA/
==
*-
